svgs/sharp-regular/calendar-image.svg

<svg xmlns="http://www.w3.org/2000/svg" viewBox="0 0 448 512"><!--! Font Awesome Pro 6.6.0 by @fontawesome - https://fontawesome.com License - https://fontawesome.com/license (Commercial License) Copyright 2024 Fonticons, Inc. --><path d="M152 24l0-24L104 0l0 24 0 40L0 64l0 80 0 48L0 464l0 48 48 0 352 0 48 0 0-48 0-272 0-48 0-80L344 64l0-40 0-24L296 0l0 24 0 40L152 64l0-40zM48 192l352 0 0 272L48 464l0-272zM160 312L80 416l288 0L256 240 184 344l-24-32zm-32-24a32 32 0 1 0 0-64 32 32 0 1 0 0 64z"/></svg>

<svg xmlns="http://www.w3.org/2000/svg" viewBox="0 0 448 512"><!--! Font Awesome Pro 6.5.2 by @fontawesome - https://fontawesome.com License - https://fontawesome.com/license (Commercial License) Copyright 2024 Fonticons, Inc. --><path d="M152 24V0H104V24 64H0v80 48V464v48H48 400h48V464 192 144 64H344V24 0H296V24 64H152V24zM48 192H400V464H48V192zM160 312L80 416H368L256 240 184 344l-24-32zm-32-24a32 32 0 1 0 0-64 32 32 0 1 0 0 64z"/></svg>
